X:627
T: VATER UNSER IN DOMINE
N: E1985
O: Europa, Mitteleuropa, Deutschland, Mittel - Franken, Thoras
R: geistlich, Gebet, Wallfahrts - Lied
M: 4/4
L: 1/8
K: Bb
FF | B2ccB2AG | F2
F2GGGG | G2B2F3E | D2
B2Bddd | d2f2e2d2 | c4
d3c | B2d2c4 | B2z4

@@@ Tune index: 5311
